X: 0
T: Ring Out, Ye Merry Bells
L: 1/4
M: 4/4
Q: 1/4=120
K: D
[V: P1]  d | B G E c | A F D D | B B G E | A3 F | B (c/d/) e A | A (B/c/) d (d/c/) | (B/d/) (c/B/ A) A | D3|]

